X:775
T:Andy McGann's
R:reel
Z:transcribed by Dave Marshall
M:C|
K:C
|: e~c3 cGEG | FEDC B,DGF | E~G3 FAcA |1 Bg^fg agfg :|2 Bg^fg eccB |
|: c2gc acgc | c2ag ^fgdB |1 c2gc acgc | B~G3 BcdB :|2 c~g3 e~a3 | ag^fa g3=f |
